X: 10182
T: 2. GREAT EASTERN -- Reel
C: A. W. Doig
R: reel
B: K\"ohler's Violin Repository, v.1, 1885 p.18 #2
F: http://www.archive.org/details/klersviolinrepos01edin
Z: 2011 John Chambers <jc:trillian.mit.edu>
N: Spaces added to break long beams for readability.
M: C
L: 1/8
K: A
ue |\
A2 (cB/A/) (eA)(aA) | cAga ecAc | B2 (dc/B/) (gB)(bB) | gbfe ^dfeG |
A2 (cB/A/) (eA)(aA) | cAab agfe | (de)fg (aA)cd | efdB A2(A || uc) |
eA (cB/A/) (eA)aA | (fA)fg (ae)cA | B2(dc/B/) fBga | fedc Befg |
a2 (AB/c/) ecAa | (gA)(fA) gaec | dbca Bgfe | dcBc "_D.C. Fine."A2A |]

%%sep 2 1 500

